X:180
T:Michael Creamer's
R:reel
M:4/4
L:1/8
K:Dmaj
|:A3B AFDF|AFAd ~f3g|afef dB~B2|dBAF FEDF|
A3B AFDF|AFAd ~f3g|afef dB~B2|1Adfe dedB:|2Adfe d2de||
|:fded BAFA|dcdf ~a3f|gefd edBc|dBAF FEDF|
A3B AFDF|AFAd ~f3g|afef dB~B2|1Adfe d2de:|2Adfe dedB||

